X:2390
T:Gretna Green
O:england
M:6/8
A:North-West
R:Jig
K:Bb
F/E/|\
Dbf dBF| Cec AFE| DFB BcA| BBB B2F/E/|\
Dbf dBF| Cec AFE|
DFB BcA| BBB B2::\
B|\
f/g/_aa a2f| g/_a/bb b2g| fdB "tr"c2B| fdB "tr"c2B|
f/g/_aa a2f| g/_a/bb b2g| fdB Cec| BFD B,2:|


